build/svg/cmd/lc_showdependents.svg

<?xml version="1.0" encoding="UTF-8" standalone="no"?>
<svg
   xmlns:dc="http://purl.org/dc/elements/1.1/"
   xmlns:cc="http://creativecommons.org/ns#"
   xmlns:rdf="http://www.w3.org/1999/02/22-rdf-syntax-ns#"
   xmlns:svg="http://www.w3.org/2000/svg"
   xmlns="http://www.w3.org/2000/svg"
   xmlns:sodipodi="http://sodipodi.sourceforge.net/DTD/sodipodi-0.dtd"
   xmlns:inkscape="http://www.inkscape.org/namespaces/inkscape"
   viewBox="0 0 24 24"
   version="1.1"
   id="svg6"
   sodipodi:docname="lc_showdependents.svg"
   inkscape:version="0.92.5 (2060ec1f9f, 2020-04-08)"
   inkscape:export-filename="/home/jupiter007/Libreoffice yaru theme fullcolor/build/cmd/lc_showdependents.png"
   inkscape:export-xdpi="96"
   inkscape:export-ydpi="96">
  <metadata
     id="metadata12">
    <rdf:RDF>
      <cc:Work
         rdf:about="">
        <dc:format>image/svg+xml</dc:format>
        <dc:type
           rdf:resource="http://purl.org/dc/dcmitype/StillImage" />
      </cc:Work>
    </rdf:RDF>
  </metadata>
  <defs
     id="defs10" />
  <sodipodi:namedview
     pagecolor="#ffffff"
     bordercolor="#666666"
     borderopacity="1"
     objecttolerance="10"
     gridtolerance="10"
     guidetolerance="10"
     inkscape:pageopacity="0"
     inkscape:pageshadow="2"
     inkscape:window-width="1920"
     inkscape:window-height="1011"
     id="namedview8"
     showgrid="true"
     inkscape:zoom="16"
     inkscape:cx="17.729122"
     inkscape:cy="5.2677499"
     inkscape:window-x="1920"
     inkscape:window-y="32"
     inkscape:window-maximized="1"
     inkscape:current-layer="svg6">
    <inkscape:grid
       type="xygrid"
       id="grid822" />
  </sodipodi:namedview>
  <rect
     ry="0"
     y="10"
     x="3"
     height="4"
     width="5"
     id="rect826"
     style="opacity:0.6;fill:#000000;fill-opacity:1;fill-rule:evenodd;stroke:#000000;stroke-width:2;stroke-linecap:butt;stroke-linejoin:round;stroke-miterlimit:4;stroke-dasharray:none;stroke-opacity:1" />
  <rect
     style="opacity:1;fill:#ffffff;fill-opacity:1;fill-rule:evenodd;stroke:none;stroke-width:2;stroke-linecap:butt;stroke-linejoin:round;stroke-miterlimit:4;stroke-dasharray:none;stroke-opacity:1"
     id="rect824"
     width="5"
     height="4"
     x="3"
     y="10"
     ry="0" />
  <rect
     style="opacity:0.6;fill:#000000;fill-opacity:1;fill-rule:evenodd;stroke:#000000;stroke-width:2;stroke-linecap:butt;stroke-linejoin:round;stroke-miterlimit:4;stroke-dasharray:none;stroke-opacity:1"
     id="rect837"
     width="5"
     height="4"
     x="16"
     y="3"
     ry="0" />
  <rect
     ry="0"
     y="3"
     x="16"
     height="4"
     width="5"
     id="rect839"
     style="opacity:1;fill:#ffffff;fill-opacity:1;fill-rule:evenodd;stroke:none;stroke-width:2;stroke-linecap:butt;stroke-linejoin:round;stroke-miterlimit:4;stroke-dasharray:none;stroke-opacity:1" />
  <rect
     ry="0"
     y="17"
     x="16"
     height="4"
     width="5"
     id="rect841"
     style="opacity:0.6;fill:#000000;fill-opacity:1;fill-rule:evenodd;stroke:#000000;stroke-width:2;stroke-linecap:butt;stroke-linejoin:round;stroke-miterlimit:4;stroke-dasharray:none;stroke-opacity:1" />
  <rect
     style="opacity:1;fill:#ffffff;fill-opacity:1;fill-rule:evenodd;stroke:none;stroke-width:2;stroke-linecap:butt;stroke-linejoin:round;stroke-miterlimit:4;stroke-dasharray:none;stroke-opacity:1"
     id="rect843"
     width="5"
     height="4"
     x="16"
     y="17"
     ry="0" />
  <path
     style="fill:#e95420;fill-opacity:1;stroke:none;stroke-width:1px;stroke-linecap:butt;stroke-linejoin:miter;stroke-opacity:1"
     d="M 13,4 H 9.0004278 L 10.293107,5.2926796 8.1717871,7.4139999 9.5860006,8.8282135 11.707321,6.7068932 13,7.9995727 Z"
     id="path855"
     inkscape:connector-curvature="0"
     inkscape:transform-center-x="2.413556"
     inkscape:transform-center-y="2.4164927" />
  <path
     inkscape:transform-center-y="-2.4164927"
     inkscape:transform-center-x="2.413556"
     inkscape:connector-curvature="0"
     id="path860"
     d="M 13,20 H 9.0004278 L 10.293107,18.70732 8.1717871,16.586 9.5860006,15.171787 11.707321,17.293107 13,16.000427 Z"
     style="fill:#e95420;fill-opacity:1;stroke:none;stroke-width:1px;stroke-linecap:butt;stroke-linejoin:miter;stroke-opacity:1" />
</svg>

<svg xmlns="http://www.w3.org/2000/svg" viewBox="0 0 24 24"><rect ry="0" y="10" x="3" height="4" width="5" opacity=".6" fill-rule="evenodd" stroke="#000" stroke-width="2" stroke-linejoin="round"/><rect width="5" height="4" x="3" y="10" ry="0" fill="#fff" fill-rule="evenodd"/><rect width="5" height="4" x="16" y="3" ry="0" opacity=".6" fill-rule="evenodd" stroke="#000" stroke-width="2" stroke-linejoin="round"/><rect ry="0" y="3" x="16" height="4" width="5" fill="#fff" fill-rule="evenodd"/><rect ry="0" y="17" x="16" height="4" width="5" opacity=".6" fill-rule="evenodd" stroke="#000" stroke-width="2" stroke-linejoin="round"/><rect width="5" height="4" x="16" y="17" ry="0" fill="#fff" fill-rule="evenodd"/><path d="M13 4H9l1.293 1.293-2.121 2.121 1.414 1.414 2.121-2.121L13 8zM13 20H9l1.293-1.293-2.121-2.121 1.414-1.414 2.121 2.121L13 16z" fill="#e95420"/></svg>
